icons/cargo.svg

<svg xmlns="http://www.w3.org/2000/svg" width="16" height="16" fill="none"><path fill="#DA9A1D" d="M5 13.5V10l3 1.5V15l-3-1.5ZM1 11V7.5L4 9v3.5L1 11ZM5 9V5.5L8 7v3.5L5 9Z"/><path fill="#FFCB66" d="M11 13.5V10l-3 1.5V15l3-1.5ZM15 10.833V7.5l-3 1.667V12.5l3-1.667ZM11 9V5.5L8 7v3.5L11 9ZM15 6.833V3.5l-3 1.667V8.5l3-1.667ZM8 6 5 4.5 8 3l3 1.5L8 6ZM12 4 9 2.5 12 1l3 1.5L12 4Z"/><path fill="#DA9A1D" d="M4 8 1 6.5 4 5v3Z"/></svg>

<svg width="16" height="16" viewBox="0 0 16 16" fill="none" xmlns="http://www.w3.org/2000/svg">
<path d="M5 13.5V10L8 11.5V15L5 13.5Z" fill="#DA9A1D"/>
<path d="M1 11V7.5L4 9V12.5L1 11Z" fill="#DA9A1D"/>
<path d="M5 9V5.5L8 7V10.5L5 9Z" fill="#DA9A1D"/>
<path d="M11 13.5V10L8 11.5V15L11 13.5Z" fill="#FFCB66"/>
<path d="M15 10.8333V7.5L12 9.16667V12.5L15 10.8333Z" fill="#FFCB66"/>
<path d="M11 9V5.5L8 7V10.5L11 9Z" fill="#FFCB66"/>
<path d="M15 6.83333V3.5L12 5.16667V8.5L15 6.83333Z" fill="#FFCB66"/>
<path d="M8 6L5 4.5L8 3L11 4.5L8 6Z" fill="#FFCB66"/>
<path d="M12 4L9 2.5L12 1L15 2.5L12 4Z" fill="#FFCB66"/>
<path d="M4 8L1 6.5L4 5V7V8Z" fill="#DA9A1D"/>
</svg>
